X:1
T:S'io sedo all'ombra
T:Marc[hett]o Cara (ca. 1474-1525)
T:Sonnet by Panfilo Sasso (1455—1527) 
T:S'io sedo all'ombra
T:Frottola
C:Marc[hett]o Cara (ca. 1474-1525)
Z:Sonnet by Panfilo Sasso (1455—1527)
%%score [ 1 2 3 4 ]
L:1/8
M:2/2
K:C
V:1 treble nm="Cantus" snm="S."
V:2 treble nm="Altus" snm="A."
V:3 treble-8 transpose=-12 nm="Tenor" snm="T."
V:4 bass3 nm="Bassus" snm="B."
V:1
 c4 c3 B | c2 G2 A4- | A2 c2 B2 c2 | !fermata!c8 | c4 c3 B | c2 G2 A4 | G4 F4 | !fermata!E8 | %8
w: S'io se- do\_all'-|om- bra\_a- mor|_ giù po- ne\_el|strale|E l'ar- co\_e|me- co se-|den- do~si|posa|
w: S'io mi la-|men- to dil|_ col- po mor-|tale|lui me con-|for- ta con|vo- ce\_amo-|rosa|
 z2 G2 G3 G | G2 G2 G2 G2 | F2 F2 E4 | E4 z2 G2 | G2 G2 F2 ED | E4 AG F2- | F2 E2 D4 | C4 z2 G2 | %16
w: s'io pian- go\_e|lui la fac- cia|la- cri- mo-|sa e|dol- si del mi- o|af- fan- * *||no e|
w: s'io mos- tro|la fe- ri- ta|la- cri- mo-|sa e|lui la fu- ga con|le su- * *||e bian-|
 G2 G2 F2 ED | EFGE AGFE | D2 C2 D4 | C16 |] %20
w: del mi- o ma- *|||le.|
w: che a- * * *|||le.|
V:2
 z8 | z4 C4 | C2 G4 G2 | !fermata!G8 | z8 | z4 C4 | C4 C2 D2 | !fermata!G,4 G,4 | z4 z2 C2 | %9
w: |mor|giù po- ne\_el|strale||se-|den- do si|po sa|e|
w: |dil|col- po mor-|tale||con|vo- ce\_a- mo-|ro- sa|tro|
 C2 C2 C2 C2 | A,2 B,2 G,4 | G,4 z2 C2 | C2 C2 A,2 G,2 | G,4 C2 A,2- | A,2 A,2 G,4 | G,4 z2 C2 | %16
w: lui la fac- cia|la- cri- mo-|sa e|dol- si del mio|af- fan- *||no e|
w: la fe- ri- ta|la- cri- mo-|sa e|lui la fu- ga|con le su-||e bian-|
 C2 C2 A,2 G,2 | G,2 C2 A,2 A2- | AGEF G4 | G16 |] %20
w: del mi- o ma-|||le.|
w: che a- * *|||le.|
V:3
 z8 | z4 f4- | f2 e2 d4 | !fermata!c8 | z8 | z4 f4- | f2 e2 d4 | !fermata!c8 | z4 z2 e2 | %9
w: |mor|_ giù pone\_el|strale||se-|* den- do~si|posa|e|
w: |dil|_ col- po~mor-|tale||con|_ vo- ce\_amo-|rosa|tro|
 e2 e2 e2 e2 | d2 d2 c4 | c4 z2 e2 | e2 e2 d2 cB | c4 fe d2- | d2 c2 B4 | c4 z2 e2 | e2 e2 d2 cB | %17
w: lui la fac- cia|la- cri- mo-|sa e|dol- si del mi- o|af- fan- * *||no e|del mi- o ma- *|
w: la fe- ri- ta|la- cri- mo-|sa e|lui la fu- ga con|le su- * *||e bian-|che a- * * *|
 cdec fedc | B2 c2 B4 | c16 |] %20
w: ||le.|
w: ||le.|
V:4
 z8 | z4 F,4- | F,2 C,2 G,4 | !fermata!C,8 | z8 | z4 F,4 | C,4 D,2 B,,2 | !fermata!C,8 | %8
w: |mor|_ giù pone\_el|strale||se-|den- do si|posa|
w: |dil|_ col- po~mor-|tale||con|vo- ce\_a- mo-|rosa|
 z4 z2 C,2 | C,2 C,2 C,2 C,2 | D,2 B,,2 C,4 | C,4 z2 C,2 | C,2 C,2 D,2 G,2 | C,4 z2 D,2- | %14
w: e|lui la fac- cia|la- cri- mo-|sa e|dol- si del mi-|o af-|
w: tro|la fe- ri- ta|la- cri- mo-|sa e|lui la fu- ga|con le|
 D,2 E,F, G,4 | %15
w: * fan- * *|
w: * su- * *|
"^Sonnet by Panfilo Sasso (1455-1527)S’io sedo all’ombra Amor giù pone el straleE l’arco, e meco sedendo si posa.S’io piango, e lui la faccia ha lacrimosa,E dolsi del mio affanno e del mio male.S’io mi lamento dil colpo mortale,Lui me conforta con voce amorosa.S’io mostro la ferita lacrimosa,E lui l’asciuga con le sue bianche ale.S’io vado in boschi, e lui per boschi viene.S’io solco il mar, e lui volge le sarteE’l timor dritto contro il vento tiene.S’io vado in guerra, e lui diventa Marte.E perché siano eterne le mie pene,Questo tiran da me mai non si parte" C,4 z2 C,2 | %16
w: no e|
w: e bian-|
 C,2 C,2 D,2 G,2 | C,4 D,4 | G,2 A,2 G,4 | C,16 |] %20
w: del mi- o ma-|||le.|
w: che a- * *|||le.|

